assets/img/braze_icons/sale-04.svg

<svg fill="none" height="24" viewBox="0 0 24 24" width="24" xmlns="http://www.w3.org/2000/svg"><path clip-rule="evenodd" d="m14.5305 2.39393-1.2475-.95786c-.7563-.580882-1.8099-.582134-2.5667.00049l-1.24498.95598c-.02396.01795-.05466.02631-.08364.02267l-1.56035-.20532c-.9462-.12472-1.85708.40246-2.22221 1.28264l-.59934 1.4518c-.01188.0277-.03394.04975-.06161.06162l-1.45171.59936c-.88018.36518-1.40732 1.2757-1.28263 2.22185l.20531 1.56042c.00374.02967-.00456.05927-.02102.08094l-.95802 1.24788c-.29064.3784-.436238.832-.4361 1.284-.000138.4521.14546.9047.4361 1.2832l.95802 1.2478c.01646.0217.02476.0513.02102.0809l-.20531 1.5605c-.12469.9461.40245 1.8566 1.28263 2.2218l1.45171.5994c.02767.0118.04973.0339.06161.0616l.59934 1.4518c.36513.8802 1.27601 1.4074 2.22221 1.2826l1.56035-.2053c.02898-.0036.05968.0047.08364.0227l1.24498.956c.7568.5826 1.8104.5813 2.5667.0005l1.2475-.9579c.0218-.0166.0489-.0234.0737-.02l.0057.0008 1.5617.2055c.9447.1245 1.8586-.4013 2.223-1.2846l.6011-1.4534c.0107-.026.0306-.0459.0566-.0566l.001-.0005 1.4542-.6015c.8802-.3652 1.4074-1.2757 1.2827-2.2218l-.2058-1.5642c-.0036-.0267.0034-.0548.0213-.078l.9574-1.247c.2916-.3786.4371-.8325.4369-1.2847.0002-.4523-.1453-.9062-.4369-1.2847l-.9574-1.24706c-.0179-.02325-.0249-.05133-.0213-.07805l.2058-1.56414c.1247-.94615-.4025-1.85667-1.2827-2.22185l-1.4542-.6015-.001-.00045c-.026-.01068-.0459-.03063-.0566-.05658l-.6011-1.45347c-.3644-.88328-1.2783-1.40906-2.223-1.28454l-1.5617.20548-.0057.00078c-.0248.00341-.0519-.00341-.0737-.01999zm2.1766 6.31318c.3905-.39053.3905-1.02369 0-1.41422-.3905-.39052-1.0237-.39052-1.4142 0l-8.00001 8.00001c-.39052.3905-.39052 1.0237 0 1.4142.39053.3905 1.02369.3905 1.41422 0zm-9.2071.29289c0-.82843.67157-1.5 1.5-1.5s1.5.67157 1.5 1.5-.67157 1.5-1.5 1.5-1.5-.67157-1.5-1.5zm6 6c0-.8284.6716-1.5 1.5-1.5s1.5.6716 1.5 1.5-.6716 1.5-1.5 1.5-1.5-.6716-1.5-1.5z" fill="#801ed7" fill-rule="evenodd"/></svg>

<svg width="24" height="24" viewBox="0 0 24 24" fill="none" xmlns="http://www.w3.org/2000/svg">
<path fill-rule="evenodd" clip-rule="evenodd" d="M14.5305 2.39393L13.283 1.43607C12.5267 0.855188 11.4731 0.853936 10.7163 1.43656L9.47132 2.39254C9.44736 2.41049 9.41666 2.41885 9.38768 2.41521L7.82733 2.20989C6.88113 2.08517 5.97025 2.61235 5.60512 3.49253L5.00578 4.94433C4.9939 4.97203 4.97184 4.99408 4.94417 5.00595L3.49246 5.60531C2.61228 5.97049 2.08514 6.88101 2.20983 7.82716L2.41514 9.38758C2.41888 9.41725 2.41058 9.44685 2.39412 9.46852L1.4361 10.7164C1.14546 11.0948 0.999862 11.5484 1 12.0004C0.999862 12.4525 1.14546 12.9051 1.4361 13.2836L2.39412 14.5314C2.41058 14.5531 2.41888 14.5827 2.41514 14.6123L2.20983 16.1728C2.08514 17.1189 2.61228 18.0294 3.49246 18.3946L4.94417 18.994C4.97184 19.0058 4.9939 19.0279 5.00578 19.0556L5.60512 20.5074C5.97025 21.3876 6.88113 21.9148 7.82733 21.79L9.38768 21.5847C9.41666 21.5811 9.44736 21.5894 9.47132 21.6074L10.7163 22.5634C11.4731 23.146 12.5267 23.1447 13.283 22.5639L14.5305 21.606C14.5523 21.5894 14.5794 21.5826 14.6042 21.586L14.6099 21.5868L16.1716 21.7923C17.1163 21.9168 18.0302 21.391 18.3946 20.5077L18.9957 19.0543C19.0064 19.0283 19.0263 19.0084 19.0523 18.9977L19.0533 18.9972L20.5075 18.3957C21.3877 18.0305 21.9149 17.12 21.7902 16.1739L21.5844 14.6097C21.5808 14.583 21.5878 14.5549 21.6057 14.5317L22.5631 13.2847C22.8547 12.9061 23.0002 12.4522 23 12C23.0002 11.5477 22.8547 11.0938 22.5631 10.7153L21.6057 9.46824C21.5878 9.44499 21.5808 9.41691 21.5844 9.39019L21.7902 7.82605C21.9149 6.8799 21.3877 5.96938 20.5075 5.6042L19.0533 5.0027L19.0523 5.00225C19.0263 4.99157 19.0064 4.97162 18.9957 4.94567L18.3946 3.4922C18.0302 2.60892 17.1163 2.08314 16.1716 2.20766L14.6099 2.41314L14.6042 2.41392C14.5794 2.41733 14.5523 2.41051 14.5305 2.39393ZM16.7071 8.70711C17.0976 8.31658 17.0976 7.68342 16.7071 7.29289C16.3166 6.90237 15.6834 6.90237 15.2929 7.29289L7.29289 15.2929C6.90237 15.6834 6.90237 16.3166 7.29289 16.7071C7.68342 17.0976 8.31658 17.0976 8.70711 16.7071L16.7071 8.70711ZM7.5 9C7.5 8.17157 8.17157 7.5 9 7.5C9.82843 7.5 10.5 8.17157 10.5 9C10.5 9.82843 9.82843 10.5 9 10.5C8.17157 10.5 7.5 9.82843 7.5 9ZM13.5 15C13.5 14.1716 14.1716 13.5 15 13.5C15.8284 13.5 16.5 14.1716 16.5 15C16.5 15.8284 15.8284 16.5 15 16.5C14.1716 16.5 13.5 15.8284 13.5 15Z" fill="#801ED7"/>
</svg>
